StripePaymentsUI/StripePaymentsUI/Resources/StripePaymentsUI.xcassets/Cards/stp_card_error.imageset/cardError.svg

<svg fill="none" height="17" viewBox="0 0 26 17" width="26" xmlns="http://www.w3.org/2000/svg" xmlns:xlink="http://www.w3.org/1999/xlink"><clipPath id="a"><path d="m0 0h26v17h-26z"/></clipPath><g clip-path="url(#a)" clip-rule="evenodd" fill="#df1b41" fill-rule="evenodd"><path d="m16.5649 13.7621h-6.4375c-.52808 0-.81246-.2428-.81246-.8095s.28438-.8095.81246-.8095h6.4375c.5282 0 .8125.2428.8125.8095s-.2843.8095-.8125.8095zm-8.87496 0h-4.4375c-.52812 0-.8125-.2428-.8125-.8095s.28438-.8095.8125-.8095h4.4375c.52813 0 .8125.2428.8125.8095s-.28437.8095-.8125.8095z" fill-opacity=".6"/><path d="m16.2908 9.67361c1.0666 1.06269 2.5133 1.65969 4.0217 1.65969s2.9551-.597 4.0217-1.65969c1.0666-1.06271 1.6658-2.50405 1.6658-4.00694 0-1.5029-.5992-2.94424-1.6658-4.00694-1.0666-1.062708-2.5133-1.65973-4.0217-1.65973s-2.9551.597022-4.0217 1.65973c-1.0666 1.0627-1.6658 2.50404-1.6658 4.00694 0 1.50289.5992 2.94423 1.6658 4.00694zm4.9598-1.00486c0 .55246-.4478 1.00031-1.0003 1.00031-.5524 0-1.0003-.44785-1.0003-1.00031s.4479-1.00031 1.0003-1.00031c.5525 0 1.0003.44785 1.0003 1.00031zm-1.6672-6.00187c0-.36831.2986-.66688.6669-.66688s.6669.29857.6669.66688v3.33437c0 .3683-.2986.66688-.6669.66688s-.6669-.29858-.6669-.66688z"/><path d="m16.2958 9.6736c1.0666 1.0627 2.5133 1.6597 4.0217 1.6597 1.354 0 2.6582-.481 3.6825-1.34811v5.01901c-.0065.5345-.221 1.0446-.5963 1.4187-.3754.374-.8811.5815-1.4065.577h-19.99444c-.26084.0022-.51955-.0478-.76136-.1473-.241814-.0996-.461995-.2466-.64797-.4327s-.334102-.4077-.435923-.652c-.1018215-.2444-.15534243-.5068-.157507-.7722v-11.99144c.00216457-.26541.0556855-.52778.157507-.77214.101821-.24436.249948-.46592.435923-.65203s.406156-.33312.64797-.43264c.24181-.09952.50052-.1496.76136-.14738h15.08824c-.2827.19402-.5491.41444-.7952.65966-1.0666 1.0627-1.6658 2.50404-1.6658 4.00694 0 1.50289.5992 2.94423 1.6658 4.00693zm-8.66545-4.46304c.35586 0 .64551.31158.64551.69894v2.81261c0 .38736-.28965.69894-.64551.69894h-4.50207c-.35587 0-.64552-.31158-.64552-.69894v-2.81261c0-.38736.28965-.69894.64552-.69894z" fill-opacity=".4"/></g></svg>

<svg width="26" height="17" viewBox="0 0 26 17" fill="none" xmlns="http://www.w3.org/2000/svg">
<g clip-path="url(#clip0_2739_478)">
<path fill-rule="evenodd" clip-rule="evenodd" d="M16.5649 13.7621H10.1274C9.59932 13.7621 9.31494 13.5193 9.31494 12.9526C9.31494 12.3859 9.59932 12.1431 10.1274 12.1431H16.5649C17.0931 12.1431 17.3774 12.3859 17.3774 12.9526C17.3774 13.5193 17.0931 13.7621 16.5649 13.7621ZM7.68994 13.7621H3.25244C2.72432 13.7621 2.43994 13.5193 2.43994 12.9526C2.43994 12.3859 2.72432 12.1431 3.25244 12.1431H7.68994C8.21807 12.1431 8.50244 12.3859 8.50244 12.9526C8.50244 13.5193 8.21807 13.7621 7.68994 13.7621Z" fill="#DF1B41" fill-opacity="0.6"/>
<path fill-rule="evenodd" clip-rule="evenodd" d="M16.2908 9.67361C17.3574 10.7363 18.8041 11.3333 20.3125 11.3333C21.8209 11.3333 23.2676 10.7363 24.3342 9.67361C25.4008 8.6109 26 7.16956 26 5.66667C26 4.16377 25.4008 2.72243 24.3342 1.65973C23.2676 0.597022 21.8209 0 20.3125 0C18.8041 0 17.3574 0.597022 16.2908 1.65973C15.2242 2.72243 14.625 4.16377 14.625 5.66667C14.625 7.16956 15.2242 8.6109 16.2908 9.67361ZM21.2506 8.66875C21.2506 9.22121 20.8028 9.66906 20.2503 9.66906C19.6979 9.66906 19.25 9.22121 19.25 8.66875C19.25 8.11629 19.6979 7.66844 20.2503 7.66844C20.8028 7.66844 21.2506 8.11629 21.2506 8.66875ZM19.5834 2.66688C19.5834 2.29857 19.882 2 20.2503 2C20.6186 2 20.9172 2.29857 20.9172 2.66688V6.00125C20.9172 6.36955 20.6186 6.66813 20.2503 6.66813C19.882 6.66813 19.5834 6.36955 19.5834 6.00125V2.66688Z" fill="#DF1B41"/>
<path fill-rule="evenodd" clip-rule="evenodd" d="M16.2958 9.6736C17.3624 10.7363 18.8091 11.3333 20.3175 11.3333C21.6715 11.3333 22.9757 10.8523 24 9.98519V15.0042C23.9935 15.5387 23.779 16.0488 23.4037 16.4229C23.0283 16.7969 22.5226 17.0044 21.9972 16.9999H2.00276C1.74192 17.0021 1.48321 16.9521 1.2414 16.8526C0.999586 16.753 0.779405 16.606 0.59343 16.4199C0.407455 16.2338 0.259328 16.0122 0.157507 15.7679C0.0556855 15.5235 0.00216457 15.2611 0 14.9957V3.00426C0.00216457 2.73885 0.0556855 2.47648 0.157507 2.23212C0.259328 1.98776 0.407455 1.7662 0.59343 1.58009C0.779405 1.39398 0.999586 1.24697 1.2414 1.14745C1.48321 1.04793 1.74192 0.99785 2.00276 1.00007H17.091C16.8083 1.19409 16.5419 1.41451 16.2958 1.65973C15.2292 2.72243 14.63 4.16377 14.63 5.66667C14.63 7.16956 15.2292 8.6109 16.2958 9.6736ZM7.63035 5.21056C7.98621 5.21056 8.27586 5.52214 8.27586 5.9095V8.72211C8.27586 9.10947 7.98621 9.42105 7.63035 9.42105H3.12828C2.77241 9.42105 2.48276 9.10947 2.48276 8.72211V5.9095C2.48276 5.52214 2.77241 5.21056 3.12828 5.21056H7.63035Z" fill="#DF1B41" fill-opacity="0.4"/>
</g>
<defs>
<clipPath id="clip0_2739_478">
<rect width="26" height="17" fill="white"/>
</clipPath>
</defs>
</svg>
